X:1
T: Sweet Flora
C:
R:Jig
Q:180
K:A
M:6/8
L:1/16
|:a6 B2A2B2|c2A2F2 E2F2G2|A4f2 e2c2A2|B2c2A2 G2F2E2|
a6 B2A2B2|c2A2F2 E2F2G2|A4f2 e2c2A2|B6A6:|
|:e6 c2d2e2|f2g2f2 a2g2f2|e6 e2d2c2|B2c2B2 G2F2E2|
e6 c2d2e2|f2g2f2 a2g2f2|e2c2f2 e2c2A2|B6A6:|
